PortableApps/LibreOfficePortable/App/libreoffice/help/media/icon-themes/cmd/lc_cleararrowdependents.svg

<svg viewBox="0 0 24 24" xmlns="http://www.w3.org/2000/svg"><path d="m15 3v5h7v-5zm1 1h5v3h-5zm-15 6v3.603516l1-.947266v-1.65625h5v2.498047l1-1.025391v-2.472656zm14 0v5h7v-5zm1 1h5v3h-5zm-10.5058594 3 .5136719.515625.5019531-.515625zm9.5058594 3v5h7v-5zm1 1h5v3h-5z" fill="#808080"/><path d="m16 4v3h5v-3zm-14 7v1.65625l.4023438-.380859c.182534-.173636.4238752-.271991.6757812-.275391.2702129-.003098.5301792.103284.7207031.294922l1.6953125 1.705078h1.015625l.4902344-.501953v-2.498047zm14 0v3h5v-3zm0 7v3h5v-3z" fill="#fff"/><path d="m10 5 1.646484 1.6464844-3.4999996 3.4999996c-.32293.312535-.1017468.859283.3476562.859375.135483 0 .265165-.054973.359375-.152343l3.5000004-3.5000004 1.646484 1.6464844v-4zm4 11-1.646484 1.646484-1.357422-1.357422-.671875.742188 1.322265 1.322266-.902343.902343.728515.744141h2.527344z" fill="#4d82b8"/><path d="m11 20.944338-2.895447-2.946153 2.7861-3.086414-2.008392-1.911762-2.867282 2.941173-2.925406-2.941173-2.089573 1.98208 2.925403 3.003525-2.925403 2.955562 2.089573 2.058824 2.922011-3.088233 2.928799 3.088233z" fill="#e68497"/></svg>

<?xml version="1.0" encoding="UTF-8" standalone="no"?>
<svg
   xmlns:dc="http://purl.org/dc/elements/1.1/"
   xmlns:cc="http://creativecommons.org/ns#"
   xmlns:rdf="http://www.w3.org/1999/02/22-rdf-syntax-ns#"
   xmlns:svg="http://www.w3.org/2000/svg"
   xmlns="http://www.w3.org/2000/svg"
   xmlns:sodipodi="http://sodipodi.sourceforge.net/DTD/sodipodi-0.dtd"
   xmlns:inkscape="http://www.inkscape.org/namespaces/inkscape"
   viewBox="0 0 24 24"
   version="1.1"
   id="svg6"
   sodipodi:docname="lc_cleararrowdependents.svg"
   inkscape:version="0.92.3 (2405546, 2018-03-11)">
  <metadata
     id="metadata12">
    <rdf:RDF>
      <cc:Work
         rdf:about="">
        <dc:format>image/svg+xml</dc:format>
        <dc:type
           rdf:resource="http://purl.org/dc/dcmitype/StillImage" />
        <dc:title></dc:title>
      </cc:Work>
    </rdf:RDF>
  </metadata>
  <defs
     id="defs10" />
  <sodipodi:namedview
     pagecolor="#ffffff"
     bordercolor="#666666"
     borderopacity="1"
     objecttolerance="10"
     gridtolerance="10"
     guidetolerance="10"
     inkscape:pageopacity="0"
     inkscape:pageshadow="2"
     inkscape:window-width="2560"
     inkscape:window-height="1319"
     id="namedview8"
     showgrid="true"
     inkscape:zoom="27.812867"
     inkscape:cx="20.506081"
     inkscape:cy="7.8048408"
     inkscape:window-x="0"
     inkscape:window-y="30"
     inkscape:window-maximized="1"
     inkscape:current-layer="svg6">
    <inkscape:grid
       type="xygrid"
       id="grid849" />
  </sodipodi:namedview>
  <path
     style="fill:#808080"
     d="M 15 3 L 15 8 L 22 8 L 22 3 L 15 3 z M 16 4 L 21 4 L 21 7 L 16 7 L 16 4 z M 1 10 L 1 13.603516 L 2 12.65625 L 2 11 L 7 11 L 7 13.498047 L 8 12.472656 L 8 10 L 1 10 z M 15 10 L 15 15 L 22 15 L 22 10 L 15 10 z M 16 11 L 21 11 L 21 14 L 16 14 L 16 11 z M 5.4941406 14 L 6.0078125 14.515625 L 6.5097656 14 L 5.4941406 14 z M 15 17 L 15 22 L 22 22 L 22 17 L 15 17 z M 16 18 L 21 18 L 21 21 L 16 21 L 16 18 z "
     id="rect843" />
  <path
     style="fill:#ffffff"
     d="M 16 4 L 16 7 L 21 7 L 21 4 L 16 4 z M 2 11 L 2 12.65625 L 2.4023438 12.275391 C 2.5848778 12.101755 2.826219 12.0034 3.078125 12 C 3.3483379 11.996902 3.6083042 12.103284 3.7988281 12.294922 L 5.4941406 14 L 6.5097656 14 L 7 13.498047 L 7 11 L 2 11 z M 16 11 L 16 14 L 21 14 L 21 11 L 16 11 z M 16 18 L 16 21 L 21 21 L 21 18 L 16 18 z "
     id="rect848" />
  <path
     style="fill:#4d82b8"
     d="M 10 5 L 11.646484 6.6464844 L 8.1464844 10.146484 C 7.8235544 10.459019 8.0447376 11.005767 8.4941406 11.005859 C 8.6296236 11.005859 8.7593056 10.950886 8.8535156 10.853516 L 12.353516 7.3535156 L 14 9 L 14 5 L 10 5 z M 14 16 L 12.353516 17.646484 L 10.996094 16.289062 L 10.324219 17.03125 L 11.646484 18.353516 L 10.744141 19.255859 L 11.472656 20 L 14 20 L 14 16 z "
     id="path4" />
  <path
     inkscape:connector-curvature="0"
     style="fill:#e68497"
     d="M 11,20.944338 8.104553,17.998185 10.890653,14.911771 8.882261,13.000009 6.014979,15.941182 3.089573,13.000009 1,14.982089 3.925403,17.985614 1,20.941176 3.089573,23 6.011584,19.911767 8.940383,23 Z"
     id="path8" />
</svg>
